X: 78
T: Ei Hatal
C: Emanuel Zamir 1957
D: Israeli Folk Dance Festival featuring Geula Zohar (Tikva 80)
O: Israel
M: 4/4
L: 1/8
Z: D. Jones (VIFD Music Book)
Q: 1/4=160
K: G
   "Am"z4 c4            | B2 BG A4            |"Em" EF G4 F2        | E2 EG "Am" A4     | z2 cc B2 A2|\
   "Em" E2 F2 "Am" G2 A2| "G" B2 Bc "Am" A4   |
|: "Am" A4 A4           | "G" Bc B2 A2"Am" GF | "Em" E2 E2 "D" FE D2| D2 E2 "Em" E2 G2  |\
   "Am" A4 A4           |"G" Bc B2 "Am" A2 GF | "Em"  E2 E2 F2 FA   | "Em"  E8          :|
   "Am" z4 c4           |"G" B2 BG "Am" A4    | "C" EF G2-"D"G2 F2  | "Em" E2 EG "Am" A4|\
   c3 c B2 A2           | "Em" E2 D2 "D" C2 D2| "Em" E2 EG "Am" A4  |z4 c4         |
   B2 G2 A4             |  EF G2- "D" G2 F2   | "Em" E2 EG "Am" A4- | A2 cc B2 A2       |\
   "Em" E2 A2 "D" G2 A2 | "G" B2 Bc "D" A4    |



